dist/images/svg-icons/layout-grid2.svg

<?xml version="1.0" encoding="utf-8"?>
<!-- Generated by IcoMoon.io -->
<!DOCTYPE svg PUBLIC "-//W3C//DTD SVG 1.1//EN" "http://www.w3.org/Graphics/SVG/1.1/DTD/svg11.dtd">
<svg version="1.1" xmlns="http://www.w3.org/2000/svg" xmlns:xlink="http://www.w3.org/1999/xlink" width="17" height="17" viewBox="0 0 17 17">
<g>
</g>
	<path d="M0 7h7v-7h-7v7zM1 1h5v5h-5v-5z" fill="#000000" />
	<path d="M9 0v7h7v-7h-7zM15 6h-5v-5h5v5z" fill="#000000" />
	<path d="M0 16h7v-7h-7v7zM1 10h5v5h-5v-5z" fill="#000000" />
	<path d="M9 16h7v-7h-7v7zM10 10h5v5h-5v-5z" fill="#000000" />
</svg>

<svg xmlns="http://www.w3.org/2000/svg" width="17" height="17"><path d="M0 7h7V0H0v7zm1-6h5v5H1V1zm8-1v7h7V0H9zm6 6h-5V1h5v5zM0 16h7V9H0v7zm1-6h5v5H1v-5zm8 6h7V9H9v7zm1-6h5v5h-5v-5z"/></svg>
